assets/Kitchen knife/Flat/kitchen_knife_flat.svg

<svg width="32" height="32" viewBox="0 0 32 32" fill="none" xmlns="http://www.w3.org/2000/svg">
<path d="M7.86502 3.10304L14.665 10.393L13.5883 12.7913L11.055 13.763L7.75502 10.223C6.97502 9.38304 5.94502 8.84304 4.81502 8.65304C4.10502 8.53304 3.43502 8.19304 2.90502 7.63304C1.61502 6.25304 1.71502 4.08304 3.13502 2.82304C4.51502 1.61304 6.61502 1.76304 7.86502 3.10304Z" fill="#7167A4"/>
<path d="M12.4481 15.271L11.055 13.763L11.0454 13.7527L14.6646 10.3926L16.063 11.8966L14.7852 14.0859L12.4481 15.271Z" fill="#CDC4D6"/>
<path d="M10.7178 16.8634V17.9211L18.9527 26.4352C21.7483 29.4291 26.179 29.6569 29.3249 27.1325L29.5096 26.2867L16.0552 11.8831L10.7178 16.8634Z" fill="#B4ACBC"/>
<path d="M10.0348 18.5729L18.4448 27.5829C21.3748 30.7229 26.2848 30.8929 29.4248 27.9629L29.7648 27.6429C30.0648 27.3629 30.0848 26.9029 29.8048 26.6029L29.5093 26.2865C26.3618 28.8912 21.6896 28.6171 18.8667 25.594L10.7174 16.8633L10.0748 17.4629C9.75482 17.7529 9.73482 18.2529 10.0348 18.5729Z" fill="#E6E6E6"/>
<path d="M8.03484 5.90316C8.03484 6.40574 7.62742 6.81316 7.12484 6.81316C6.62226 6.81316 6.21484 6.40574 6.21484 5.90316C6.21484 5.40059 6.62226 4.99316 7.12484 4.99316C7.62742 4.99316 8.03484 5.40059 8.03484 5.90316Z" fill="#F9C23C"/>
<path d="M11.6748 9.79318C11.6748 10.2958 11.2674 10.7032 10.7648 10.7032C10.2622 10.7032 9.8548 10.2958 9.8548 9.79318C9.8548 9.2906 10.2622 8.88318 10.7648 8.88318C11.2674 8.88318 11.6748 9.2906 11.6748 9.79318Z" fill="#F9C23C"/>
</svg>

<svg xmlns="http://www.w3.org/2000/svg" width="32" height="32" fill="none"><path fill="#7167A4" d="m7.865 3.103 6.8 7.29-1.077 2.398-2.533.972-3.3-3.54a5.154 5.154 0 0 0-2.94-1.57 3.358 3.358 0 0 1-1.68-5.83c1.38-1.21 3.48-1.06 4.73.28Z"/><path fill="#CDC4D6" d="m12.448 15.271-1.393-1.508-.01-.01 3.62-3.36 1.398 1.504-1.278 2.189-2.337 1.185Z"/><path fill="#B4ACBC" d="M10.718 16.863v1.058l8.235 8.514c2.795 2.994 7.226 3.222 10.372.698l.185-.846-13.455-14.404-5.337 4.98Z"/><path fill="#E6E6E6" d="m10.035 18.573 8.41 9.01a7.763 7.763 0 0 0 10.98.38l.34-.32c.3-.28.32-.74.04-1.04l-.296-.317a7.783 7.783 0 0 1-10.642-.692l-8.15-8.73-.642.599c-.32.29-.34.79-.04 1.11Z"/><path fill="#F9C23C" d="M8.035 5.903a.91.91 0 1 1-1.82 0 .91.91 0 0 1 1.82 0ZM11.675 9.793a.91.91 0 1 1-1.82 0 .91.91 0 0 1 1.82 0Z"/></svg>
